static/images/pancakeswap-logo.svg

<svg height="100" viewBox="0 0 100 100" width="100" xmlns="http://www.w3.org/2000/svg"><g fill="none" fill-rule="evenodd"><path d="m17.8125 15.625c-1.5625-8.125 4.6875-15.625 12.8125-15.625 7.1875 0 13.125 5.9375 13.125 13.125v16.25c1.875 0 3.75-.3125 5.625-.3125s3.4375 0 5.3125.3125v-16.25c0-7.1875 5.9375-13.125 13.125-13.125 8.125 0 14.375 7.5 13.125 15.625l-3.4375 19.0625c12.1875 5.3125 21.5625 14.6875 21.5625 26.25v7.1875c0 9.6875-6.25 17.8125-15.3125 23.125-9.0625 5.625-20.9375 8.75-34.375 8.75s-25.3125-3.125-34.375-8.75c-8.75-5.3125-15-13.4375-15-23.125v-7.1875c0-11.5625 9.0625-20.9375 21.25-26.25zm55 21.5625 4.0625-22.5c.9375-5.625-3.125-10.9375-9.0625-10.9375-5 0-9.0625 4.0625-9.0625 9.0625v20.625c-1.25-.3125-2.8125-.3125-4.0625-.3125-1.875 0-3.4375-.3125-5.3125-.3125s-3.75 0-5.625.3125c-1.25 0-2.8125.3125-4.0625.3125v-20.3125c0-5-4.0625-9.0625-9.0625-9.0625-5.625 0-10 5.3125-8.75 10.9375l4.0625 22.5c-13.125 5-21.875 13.75-21.875 23.75v7.1875c0 15.3125 20.3125 27.8125 45.3125 27.8125s45.3125-12.5 45.3125-27.8125v-7.1875c.3125-10.3125-8.4375-19.0625-21.875-24.0625z" fill="#633001"/><path d="m95 68.125c0 15.3125-20.3125 27.8125-45.3125 27.8125s-45.3125-12.5-45.3125-27.8125v-7.1875h90.9375v7.1875z" fill="#fedc90" fill-rule="nonzero"/><path d="m21.875 15c-1.25-5.625 3.125-10.9375 8.75-10.9375 5 0 9.0625 4.0625 9.0625 9.0625v20.625c3.125-.3125 6.25-.625 9.6875-.625 3.125 0 6.25.3125 9.375.625v-20.625c0-5 4.0625-9.0625 9.0625-9.0625 5.625 0 10 5.3125 9.0625 10.9375l-4.0625 22.5c13.125 5 22.1875 13.75 22.1875 23.75 0 15.3125-20.3125 27.8125-45.3125 27.8125s-45.3125-12.5-45.3125-27.8125c0-10 8.75-18.75 21.875-23.75z" fill="#d1884f"/><g fill="#633001" fill-rule="nonzero"><path d="m36.875 59.0625c0 4.0625-2.1875 7.5-5 7.5s-5-3.4375-5-7.5 2.1875-7.5 5-7.5 5 3.4375 5 7.5z"/><path d="m71.5625 59.0625c0 4.0625-2.1875 7.5-5 7.5s-5-3.4375-5-7.5 2.1875-7.5 5-7.5 5 3.4375 5 7.5z"/></g></g></svg>

<?xml version="1.0" encoding="UTF-8"?>
<svg width="100px" height="100px" viewBox="0 0 100 100" version="1.1" xmlns="http://www.w3.org/2000/svg" xmlns:xlink="http://www.w3.org/1999/xlink">
    <!-- Generator: Sketch 63.1 (92452) - https://sketch.com -->
    <title>pancakeswap-logo</title>
    <desc>Created with Sketch.</desc>
    <g id="Page-1" stroke="none" stroke-width="1" fill="none" fill-rule="evenodd">
        <g id="pancakeswap-logo">
            <path d="M17.8125,15.625 C16.25,7.5 22.5,0 30.625,0 C37.8125,0 43.75,5.9375 43.75,13.125 L43.75,29.375 C45.625,29.375 47.5,29.0625 49.375,29.0625 C51.25,29.0625 52.8125,29.0625 54.6875,29.375 L54.6875,13.125 C54.6875,5.9375 60.625,0 67.8125,0 C75.9375,0 82.1875,7.5 80.9375,15.625 L77.5,34.6875 C89.6875,40 99.0625,49.375 99.0625,60.9375 L99.0625,68.125 C99.0625,77.8125 92.8125,85.9375 83.75,91.25 C74.6875,96.875 62.8125,100 49.375,100 C35.9375,100 24.0625,96.875 15,91.25 C6.25,85.9375 0,77.8125 0,68.125 L0,60.9375 C0,49.375 9.0625,40 21.25,34.6875 L17.8125,15.625 Z M72.8125,37.1875 L76.875,14.6875 C77.8125,9.0625 73.75,3.75 67.8125,3.75 C62.8125,3.75 58.75,7.8125 58.75,12.8125 L58.75,33.4375 C57.5,33.125 55.9375,33.125 54.6875,33.125 C52.8125,33.125 51.25,32.8125 49.375,32.8125 C47.5,32.8125 45.625,32.8125 43.75,33.125 C42.5,33.125 40.9375,33.4375 39.6875,33.4375 L39.6875,13.125 C39.6875,8.125 35.625,4.0625 30.625,4.0625 C25,4.0625 20.625,9.375 21.875,15 L25.9375,37.5 C12.8125,42.5 4.0625,51.25 4.0625,61.25 L4.0625,68.4375 C4.0625,83.75 24.375,96.25 49.375,96.25 C74.375,96.25 94.6875,83.75 94.6875,68.4375 L94.6875,61.25 C95,50.9375 86.25,42.1875 72.8125,37.1875 Z" id="Shape" fill="#633001"></path>
            <path d="M95,68.125 C95,83.4375 74.6875,95.9375 49.6875,95.9375 C24.6875,95.9375 4.375,83.4375 4.375,68.125 L4.375,60.9375 L95.3125,60.9375 L95.3125,68.125 L95,68.125 Z" id="Path" fill="#FEDC90" fill-rule="nonzero"></path>
            <path d="M21.875,15 C20.625,9.375 25,4.0625 30.625,4.0625 C35.625,4.0625 39.6875,8.125 39.6875,13.125 L39.6875,33.75 C42.8125,33.4375 45.9375,33.125 49.375,33.125 C52.5,33.125 55.625,33.4375 58.75,33.75 L58.75,13.125 C58.75,8.125 62.8125,4.0625 67.8125,4.0625 C73.4375,4.0625 77.8125,9.375 76.875,15 L72.8125,37.5 C85.9375,42.5 95,51.25 95,61.25 C95,76.5625 74.6875,89.0625 49.6875,89.0625 C24.6875,89.0625 4.375,76.5625 4.375,61.25 C4.375,51.25 13.125,42.5 26.25,37.5 L21.875,15 Z" id="Path" fill="#D1884F"></path>
            <path d="M36.875,59.0625 C36.875,63.125 34.6875,66.5625 31.875,66.5625 C29.0625,66.5625 26.875,63.125 26.875,59.0625 C26.875,55 29.0625,51.5625 31.875,51.5625 C34.6875,51.5625 36.875,55 36.875,59.0625 Z" id="Path" fill="#633001" fill-rule="nonzero"></path>
            <path d="M71.5625,59.0625 C71.5625,63.125 69.375,66.5625 66.5625,66.5625 C63.75,66.5625 61.5625,63.125 61.5625,59.0625 C61.5625,55 63.75,51.5625 66.5625,51.5625 C69.375,51.5625 71.5625,55 71.5625,59.0625 Z" id="Path" fill="#633001" fill-rule="nonzero"></path>
        </g>
    </g>
</svg>
